X:1
T:The Conqueror
T:Grant Colfax Tullar
T:The Conqueror
T:Public Domain
T:Public Domain
C:Grant Colfax Tullar
Z:Public Domain
%%score ( 1 2 ) ( 3 4 )
L:1/8
M:4/4
K:C
V:1 treble 
V:2 treble 
V:3 bass 
V:4 bass 
V:1
 (GA)(GA) [EG]2 [Ec]2 | [Fc]2 [FB]2 [FB]4 | (GA)(GA) [FG]2 [Fd]2 | [Ed]2 [Ec]2 [Ec]4 | %4
w: 1.~O * Thou * Lamb of|ry, Thy tri-|umph- * ant * day is|of glo- rious|
w: 2.~All * in * vain the|death Guard the|ston- * y * ten- e-|a whis- per,|
w: 3.~O * the * glo- rious|ry! Je- sus|slain * a- * wakes a-|umphs o- ver|
 (GA)(GA) [EG]2 [Gc]2 | [GB]2 [^Fc]2 [Gd]4 | (de)(de) [=Fd]2 [FA]2 | [Fd]6 z2 | %8
w: vic- * to- * ry, Over|ing tomb! All|the * shame * and a-|Of|
w: yea, * a * breath, Lo!|are rent! Where|is * now * the taunt-|And|
w: Cal- * va- * ry, And|of men! Je-|sus * now * the ris-|Is|
 (GA)(GA) [EG]2 [Ec]2 | [Fc]2 [FB]2 [FB]4 | (GA)(GA) [FG]2 [Fd]2 | [Ed]2 [Ec]2 [Ec]4 | %12
w: the * cru- * el cross|Died the Man|of * Ga- * li- lee,|the Con- quer-|
w: the * crown * of thorns|Ye have made|a * King, * in- deed,|a Con- quer-|
w: a- * live * for- ev-|Earth and Heav-|en * tri- * bute sing—|Him Con- quer-|
 (e^d)(ef) [Ge]2 A2 | [Ad]2 [Ae]2 [Af]2 (ed) | [Gc]2 [Gc]2 [Ge]2 [Fd]2 | [Ec]6 ||"^Refrain" G2 | %17
w: ror! * O * death, where|O grave, thy vic- *|ry? The ris- en|Lord,|the|
w: or! * * * * *|||||
w: or! * * * * *|||||
 (z2 G2 e)G^FG | (z FFG [Fd]2) ([Bd][Ac]) | [GB]4- [GB][FA][DF][FA] | [EG]6 (EG) | %21
w: * * ior- King, Has|* * * * quered *|* * for me. *||
w: ||||
w: ||||
 c2 [G=c]2 [A^c]2 [Ac]2 | [Ad]2 [Ae]2 [Af]2 (ed) | [Gc]2 [Gc]2 [Ge]2 [Fd]2 | [Ec]6 z2 |] %25
w: ||||
w: ||||
w: ||||
V:2
 E2 E2 x4 | x8 | F2 F2 x4 | x8 | E2 E2 x4 | x8 | ^F2 F2 x4 | x8 | E2 E2 x4 | x8 | F2 F2 x4 | x8 | %12
w: Cal- va-||come! Day||the boast-||go- ny||He bore;||But rose||
w: wards of||ment; But||its bars||ing reed,||He wore?||And crowned||
w: vic- to-||gain, Tri-||the wiles||en King||er- more!||And hail||
 G2 G2 x A2 x | x6 A2 | x8 | x6 || G2 | (e4- G2) x2 | A4 x4 | x8 | x6 EG | ^c2 x6 | x6 A2 | x8 | %24
w: is thy sting?|to-|||Sav-|con- *|death||||||
w: ||||||||||||
w: ||||||||||||
 x8 |] %25
w: |
w: |
w: |
V:3
 [C,G,]2 [G,,G,]2 [C,G,]2 [G,,G,]2 | [D,G,]2 [G,,G,]2 (D,2 G,,2) | %2
w: ~ ~ ~ ~|~ ~ ~ *|
 [B,,G,]2 [G,,G,]2 [B,,G,]2 [G,,G,]2 | [C,G,]2 [G,,G,]2 (C,2 G,,2) | %4
w: ~ ~ ~ ~|~ ~ ~ *|
 [C,G,]2 [G,,G,]2 [C,G,]2 [E,C]2 | [D,D]2 [D,D]2 [G,B,]4 | [A,C]2 [D,C]2 [A,C]2 [D,C]2 | %7
w: ~ ~ ~ ~|~ ~ ~|~ ~ ~ ~|
 (G,2 F,2 E,2 D,2) | [C,G,]2 [G,,G,]2 [C,G,]2 [G,,G,]2 | [D,G,]2 [G,,G,]2 (D,2 G,,2) | %10
w: ~ * * *|~ ~ ~ ~|~ ~ ~ *|
 [B,,G,]2 [G,,G,]2 [B,,G,]2 [G,,G,]2 | [C,G,]2 [G,,G,]2 (C,2 G,,2) | [A,^C]2 [E,C]2 [A,C]2 (A,G,) | %13
w: ~ ~ ~ ~|~ ~ ~ *|~ ~ ~ ~ *|
 [F,D]2 [E,^C]2 [D,D]2 ([E,=C][F,D]) | [G,E]2 [G,E]2 [G,C]2 [G,B,]2 | [C,C]6 || z2 | %17
w: ~ ~ ~ O *|death, where is thy|sting?||
 z2 [C,C]2 [C,C]2 z2 | z [F,C][F,C][E,^C] [D,D]2 z2 | (G,,2 [F,G,B,][F,G,B,] [F,G,B,]2) [F,G,B,]2 | %20
w: |||
 (C,2 [E,G,C][E,G,C] [E,G,C]2) (E,G,) | C2 (CB,) [A,E]2 (A,G,) | %22
w: ||
 [F,D]2 [E,^C]2 [D,D]2 ([E,=C][F,D]) | [G,E]2 [G,E]2 [G,C]2 [G,B,]2 | [C,C]6 z2 |] %25
w: |||
V:4
 x8 | x4 G,4 | x8 | x4 G,4 | x8 | x8 | x8 | B,6 x2 | x8 | x4 G,4 | x8 | x4 G,4 | x6 ^C2 | x8 | x8 | %15
w: |~||~||||~||~||~|~|||
 x6 || x2 | x8 | x8 | x8 | x6 E,G, | C2 E2 x E2 x | x8 | x8 | x8 |] %25
w: ||||||||||

